Dominus_Dark_Funeral/symbolic/apps/password-manager-symbolic.svg

<svg xmlns="http://www.w3.org/2000/svg" height="24" width="24"><path d="M10.3 1.17c-.06.02-.08.13-.08.34 0 .34-.14.68-.37.84-.21.16-.25 2.6-.07 6.88l.07 1.65a.66.66 0 0 0-.21.12.77.77 0 0 0-.2.28c-.03.15-.07 2.61-.03 3.09l.01 2.3v1.68c.02.39.02 1.02.03 1.4 0 2.03 0 2.03.28 2.28.42.31 1.2.26 1.53-.12.17-.18.18-.38.17-3.16a2076.5 1515.27 0 0 1-.02-3.55c0-2.72-.04-3.77-.12-4-.05-.13-.14-.2-.3-.28l-.11-1c-.31-3.32-.39-5.37-.18-5.69.24-.33.18-.7-.11-1.13-.37-.45-.37-.72-.07-.97.26-.24.26-.51.08-.75-.15-.16-.25-.23-.3-.21zm6.76.33c-.16 0-.51.27-.52.43-.01.12.08.45.21.75.18.49.16.59-.33 1.1-.69.64-.7.8-.18 1.5.26.36.4.76.39 1.21 0 .4-.08 2.02-.16 3.83a.97.97 0 0 0-.27.13.8.8 0 0 0-.2.29c-.02.14-.06 2.6-.02 3.08l.02 2.3v1.68c0 .4 0 1.03.02 1.41 0 2.03 0 2.03.28 2.27.42.32 1.2.27 1.54-.11.16-.18.17-.38.16-3.16a2076.5 1515.27 0 0 1-.03-3.55c0-2.72-.03-3.78-.11-4-.06-.15-.16-.22-.37-.32v-2.5c0-1.76-.05-2.04-.45-2.55a4.56 3.33 0 0 1-.46-.73c-.02-.08.22-.41.51-.72.55-.55.6-.98.21-1.34a1.57 1.14 0 0 1-.13-.53c0-.21-.03-.42-.06-.46a.08.08 0 0 0-.05-.01zm-10.28.7c-.06 0-.08.03-.08.11a468 468 0 0 0-.15 9.14.94.94 0 0 0-.3.15.81.81 0 0 0-.2.28c-.03.14-.07 2.61-.03 3.09l.01 2.3v1.68l.02 1.4c0 2.04 0 2.04.29 2.27.42.33 1.2.27 1.53-.1.17-.19.17-.39.17-3.17A2076.5 1515.27 0 0 1 8 15.8c0-2.72-.03-3.78-.11-4-.06-.14-.16-.21-.34-.3l-.05-2.17c-.15-4.51-.12-5.56.1-5.9.3-.48.11-.86-.52-1.14a.93.93 0 0 0-.31-.1zm5.04.02l-.07.01c-.22.1 1.8 1.3 1.73 5.11-.03 1.48-.08 2.8-.12 4-.06.02-.12.05-.14.08a.71.71 0 0 0-.2.28c-.03.14-.07 2.61-.03 3.09l.02 2.3v1.68l.02 1.4c0 2.03 0 2.03.28 2.27.43.32 1.2.27 1.54-.11.16-.18.17-.38.16-3.16a2076.5 1515.27 0 0 1-.02-3.55c0-2.72-.04-3.78-.12-4-.04-.1-.12-.18-.23-.24l-.1-3.69c-.13-4.33-2.23-5.47-2.72-5.47zm5.14 18.01a.38.28 0 0 1 .37.28.38.28 0 0 1-.37.27.38.28 0 0 1-.37-.27.38.28 0 0 1 .38-.28zm-6.56.55a.38.28 0 0 1 .37.27.38.28 0 0 1-.37.27.38.28 0 0 1-.38-.27.38.28 0 0 1 .38-.27zm3.58.42a.38.28 0 0 1 .37.27.38.28 0 0 1-.37.27.38.28 0 0 1-.38-.27.38.28 0 0 1 .38-.27zM7 21.38a.38.28 0 0 1 .37.27.38.28 0 0 1-.37.27.38.28 0 0 1-.38-.27.38.28 0 0 1 .38-.27z" fill="gray"/></svg>

<?xml version="1.0" encoding="UTF-8" standalone="no"?>
<svg
   xmlns:dc="http://purl.org/dc/elements/1.1/"
   xmlns:cc="http://creativecommons.org/ns#"
   xmlns:rdf="http://www.w3.org/1999/02/22-rdf-syntax-ns#"
   xmlns:svg="http://www.w3.org/2000/svg"
   xmlns="http://www.w3.org/2000/svg"
   xmlns:sodipodi="http://sodipodi.sourceforge.net/DTD/sodipodi-0.dtd"
   xmlns:inkscape="http://www.inkscape.org/namespaces/inkscape"
   height="24"
   width="24"
   version="1.1"
   id="svg4"
   sodipodi:docname="password-manager-symbolic.svg"
   inkscape:version="0.92.4 (5da689c313, 2019-01-14)">
  <metadata
     id="metadata10">
    <rdf:RDF>
      <cc:Work
         rdf:about="">
        <dc:format>image/svg+xml</dc:format>
        <dc:type
           rdf:resource="http://purl.org/dc/dcmitype/StillImage" />
        <dc:title></dc:title>
      </cc:Work>
    </rdf:RDF>
  </metadata>
  <defs
     id="defs8" />
  <sodipodi:namedview
     pagecolor="#ffffff"
     bordercolor="#666666"
     borderopacity="1"
     objecttolerance="10"
     gridtolerance="10"
     guidetolerance="10"
     inkscape:pageopacity="0"
     inkscape:pageshadow="2"
     inkscape:window-width="1112"
     inkscape:window-height="480"
     id="namedview6"
     showgrid="false"
     inkscape:zoom="9.8333333"
     inkscape:cx="1.0677966"
     inkscape:cy="12"
     inkscape:window-x="0"
     inkscape:window-y="25"
     inkscape:window-maximized="0"
     inkscape:current-layer="svg4" />
  <path
     d="M 10.3,1.17 C 10.24,1.19 10.22,1.3 10.22,1.51 10.22,1.85 10.08,2.19 9.85,2.35 9.64,2.51 9.6,4.95 9.78,9.23 l 0.07,1.65 A 0.66,0.66 0 0 0 9.64,11 0.77,0.77 0 0 0 9.44,11.28 c -0.03,0.15 -0.07,2.61 -0.03,3.09 l 0.01,2.3 v 1.68 c 0.02,0.39 0.02,1.02 0.03,1.4 0,2.03 0,2.03 0.28,2.28 0.42,0.31 1.2,0.26 1.53,-0.12 0.17,-0.18 0.18,-0.38 0.17,-3.16 A 2076.5,1515.27 0 0 1 11.41,15.2 c 0,-2.72 -0.04,-3.77 -0.12,-4 -0.05,-0.13 -0.14,-0.2 -0.3,-0.28 l -0.11,-1 C 10.57,6.6 10.49,4.55 10.7,4.23 10.94,3.9 10.88,3.53 10.59,3.1 10.22,2.65 10.22,2.38 10.52,2.13 10.78,1.89 10.78,1.62 10.6,1.38 10.45,1.22 10.35,1.15 10.3,1.17 Z m 6.76,0.33 c -0.16,0 -0.51,0.27 -0.52,0.43 -0.01,0.12 0.08,0.45 0.21,0.75 0.18,0.49 0.16,0.59 -0.33,1.1 -0.69,0.64 -0.7,0.8 -0.18,1.5 0.26,0.36 0.4,0.76 0.39,1.21 0,0.4 -0.08,2.02 -0.16,3.83 A 0.97,0.97 0 0 0 16.2,10.45 0.8,0.8 0 0 0 16,10.74 c -0.02,0.14 -0.06,2.6 -0.02,3.08 l 0.02,2.3 v 1.68 c 0,0.4 0,1.03 0.02,1.41 0,2.03 0,2.03 0.28,2.27 0.42,0.32 1.2,0.27 1.54,-0.11 C 18,21.19 18.01,20.99 18,18.21 a 2076.5,1515.27 0 0 1 -0.03,-3.55 c 0,-2.72 -0.03,-3.78 -0.11,-4 C 17.8,10.51 17.7,10.44 17.49,10.34 V 7.84 C 17.49,6.08 17.44,5.8 17.04,5.29 A 4.56,3.33 0 0 1 16.58,4.56 C 16.56,4.48 16.8,4.15 17.09,3.84 17.64,3.29 17.69,2.86 17.3,2.5 A 1.57,1.14 0 0 1 17.17,1.97 c 0,-0.21 -0.03,-0.42 -0.06,-0.46 A 0.08,0.08 0 0 0 17.06,1.5 Z M 6.78,2.2 C 6.72,2.2 6.7,2.23 6.7,2.31 a 468,468 0 0 0 -0.15,9.14 0.94,0.94 0 0 0 -0.3,0.15 0.81,0.81 0 0 0 -0.2,0.28 c -0.03,0.14 -0.07,2.61 -0.03,3.09 l 0.01,2.3 v 1.68 l 0.02,1.4 c 0,2.04 0,2.04 0.29,2.27 0.42,0.33 1.2,0.27 1.53,-0.1 0.17,-0.19 0.17,-0.39 0.17,-3.17 A 2076.5,1515.27 0 0 1 8,15.8 C 8,13.08 7.97,12.02 7.89,11.8 7.83,11.66 7.73,11.59 7.55,11.5 L 7.5,9.33 C 7.35,4.82 7.38,3.77 7.6,3.43 7.9,2.95 7.71,2.57 7.08,2.29 A 0.93,0.93 0 0 0 6.77,2.19 Z m 5.04,0.02 -0.07,0.01 c -0.22,0.1 1.8,1.3 1.73,5.11 -0.03,1.48 -0.08,2.8 -0.12,4 -0.06,0.02 -0.12,0.05 -0.14,0.08 a 0.71,0.71 0 0 0 -0.2,0.28 c -0.03,0.14 -0.07,2.61 -0.03,3.09 l 0.02,2.3 v 1.68 l 0.02,1.4 c 0,2.03 0,2.03 0.28,2.27 0.43,0.32 1.2,0.27 1.54,-0.11 0.16,-0.18 0.17,-0.38 0.16,-3.16 a 2076.5,1515.27 0 0 1 -0.02,-3.55 c 0,-2.72 -0.04,-3.78 -0.12,-4 -0.04,-0.1 -0.12,-0.18 -0.23,-0.24 L 14.54,7.69 C 14.41,3.36 12.31,2.22 11.82,2.22 Z m 5.14,18.01 a 0.38,0.28 0 0 1 0.37,0.28 0.38,0.28 0 0 1 -0.37,0.27 0.38,0.28 0 0 1 -0.37,-0.27 0.38,0.28 0 0 1 0.38,-0.28 z m -6.56,0.55 a 0.38,0.28 0 0 1 0.37,0.27 0.38,0.28 0 0 1 -0.37,0.27 0.38,0.28 0 0 1 -0.38,-0.27 0.38,0.28 0 0 1 0.38,-0.27 z m 3.58,0.42 a 0.38,0.28 0 0 1 0.37,0.27 0.38,0.28 0 0 1 -0.37,0.27 0.38,0.28 0 0 1 -0.38,-0.27 0.38,0.28 0 0 1 0.38,-0.27 z M 7,21.38 A 0.38,0.28 0 0 1 7.37,21.65 0.38,0.28 0 0 1 7,21.92 0.38,0.28 0 0 1 6.62,21.65 0.38,0.28 0 0 1 7,21.38 Z"
     id="path2"
     inkscape:connector-curvature="0"
     style="fill:#808080" />
</svg>
